X: 30054
T: Off To The Hunt
R: jig
M: 6/8
K: Edorian
|:~E3 EFA|B/c/dB AFE|DCD FED|AFD FED|
E3 EF/G/A|BAB dfe|BAG FGA|1 BEE E2D:|2 BEE E2^d||
|:e^de ~E3|e^de E2e|d2D DCD|FEF DEF|
GFG AGA|BAB dfe|BAG FGA|1 BEE E2^d:|2 BEE E2D||

